img/icon_nav.svg

<svg width="41" height="33" viewBox="0 0 41 33" fill="none" xmlns="http://www.w3.org/2000/svg">
<path fill-rule="evenodd" clip-rule="evenodd" d="M16.1894 0.591873C16.9715 1.11734 17.1795 2.17733 16.6541 2.95942L13.2117 8.08301H29.1467L25.7043 2.95942C25.1789 2.17733 25.3869 1.11734 26.169 0.591873C26.9511 0.0664075 28.0111 0.274448 28.5365 1.05654L33.2573 8.08301H38.3604L38.3604 8.08313H39.1026C40.0448 8.08313 40.8086 8.84695 40.8086 9.78918C40.8086 10.7314 40.0448 11.4952 39.1026 11.4952H37.778L34.7371 29.3107C34.3734 31.4417 32.5264 33.0001 30.3647 33.0001H11.0007C8.81744 33.0001 6.95884 31.4114 6.61904 29.2547L3.82084 11.4952H2.51463C1.57241 11.4952 0.808594 10.7314 0.808594 9.78918C0.808594 8.84695 1.57241 8.08313 2.51463 8.08313H3.28322L3.2832 8.08301H9.10107L13.8219 1.05654C14.3473 0.274448 15.4073 0.0664073 16.1894 0.591873ZM32.3113 11.4952C32.3371 11.4958 32.3629 11.4958 32.3887 11.4952H34.3166L31.3737 28.7366C31.2897 29.2283 30.8635 29.588 30.3647 29.588H11.0007C10.4968 29.588 10.0679 29.2213 9.98952 28.7237L7.275 11.4952H9.96969C9.99549 11.4958 10.0213 11.4958 10.047 11.4952H32.3113ZM14.5149 15.6615C14.3675 14.7309 13.4936 14.096 12.563 14.2434C11.6323 14.3908 10.9974 15.2647 11.1448 16.1953L12.6061 25.422C12.7535 26.3526 13.6274 26.9876 14.5581 26.8402C15.4887 26.6928 16.1236 25.8189 15.9762 24.8882L14.5149 15.6615ZM21.1777 14.2227C22.1199 14.2227 22.8837 14.9865 22.8837 15.9287V25.1552C22.8837 26.0975 22.1199 26.8613 21.1777 26.8613C20.2355 26.8613 19.4717 26.0975 19.4717 25.1552V15.9287C19.4717 14.9865 20.2355 14.2227 21.1777 14.2227ZM30.4704 16.253C30.6178 15.3224 29.9828 14.4485 29.0522 14.3011C28.1216 14.1537 27.2477 14.7886 27.1003 15.7192L25.657 24.8322C25.5096 25.7628 26.1445 26.6367 27.0751 26.7841C28.0058 26.9315 28.8797 26.2966 29.027 25.3659L30.4704 16.253Z" fill="#EE6158"/>
</svg>

<?xml version="1.0" encoding="utf-8"?>
<!-- Generator: Adobe Illustrator 26.5.0, SVG Export Plug-In . SVG Version: 6.00 Build 0)  -->
<svg version="1.1" id="Layer_1" xmlns="http://www.w3.org/2000/svg" xmlns:xlink="http://www.w3.org/1999/xlink" x="0px" y="0px"
	 viewBox="0 0 41 33" style="enable-background:new 0 0 41 33;" xml:space="preserve">
<style type="text/css">
	.st0{fill-rule:evenodd;clip-rule:evenodd;fill:#C83E36;}
</style>
<path class="st0" d="M16.2,0.6c0.8,0.5,1,1.6,0.5,2.4l-3.4,5.1h15.9L25.7,3c-0.5-0.8-0.3-1.8,0.5-2.4C27,0.1,28,0.3,28.5,1.1l4.7,7
	h5.1v0h0.7c0.9,0,1.7,0.8,1.7,1.7c0,0.9-0.8,1.7-1.7,1.7h-1.3l-3,17.8c-0.4,2.1-2.2,3.7-4.4,3.7H11c-2.2,0-4-1.6-4.4-3.7L3.8,11.5
	H2.5c-0.9,0-1.7-0.8-1.7-1.7c0-0.9,0.8-1.7,1.7-1.7h0.8l0,0h5.8l4.7-7C14.3,0.3,15.4,0.1,16.2,0.6z M32.3,11.5
	C32.3,11.5,32.4,11.5,32.3,11.5h2l-2.9,17.2c-0.1,0.5-0.5,0.9-1,0.9H11c-0.5,0-0.9-0.4-1-0.9L7.3,11.5H10c0,0,0.1,0,0.1,0H32.3z
	 M14.5,15.7c-0.1-0.9-1-1.6-2-1.4c-0.9,0.1-1.6,1-1.4,2l1.5,9.2c0.1,0.9,1,1.6,2,1.4c0.9-0.1,1.6-1,1.4-2L14.5,15.7z M21.2,14.2
	c0.9,0,1.7,0.8,1.7,1.7v9.2c0,0.9-0.8,1.7-1.7,1.7s-1.7-0.8-1.7-1.7v-9.2C19.5,15,20.2,14.2,21.2,14.2z M30.5,16.3
	c0.1-0.9-0.5-1.8-1.4-2c-0.9-0.1-1.8,0.5-2,1.4l-1.4,9.1c-0.1,0.9,0.5,1.8,1.4,2c0.9,0.1,1.8-0.5,2-1.4L30.5,16.3z"/>
</svg>
